Numix-GalliumOS/22/categories/applications-ide.svg

<?xml version="1.0" encoding="UTF-8" standalone="no"?>
<svg
   xmlns:dc="http://purl.org/dc/elements/1.1/"
   xmlns:cc="http://creativecommons.org/ns#"
   xmlns:rdf="http://www.w3.org/1999/02/22-rdf-syntax-ns#"
   xmlns:svg="http://www.w3.org/2000/svg"
   xmlns="http://www.w3.org/2000/svg"
   xmlns:sodipodi="http://sodipodi.sourceforge.net/DTD/sodipodi-0.dtd"
   xmlns:inkscape="http://www.inkscape.org/namespaces/inkscape"
   width="22"
   height="22"
   viewBox="0 0 22 22"
   id="svg2"
   version="1.1"
   inkscape:version="0.91 r"
   sodipodi:docname="applications-ide.svg">
  <metadata
     id="metadata10">
    <rdf:RDF>
      <cc:Work
         rdf:about="">
        <dc:format>image/svg+xml</dc:format>
        <dc:type
           rdf:resource="http://purl.org/dc/dcmitype/StillImage" />
      </cc:Work>
    </rdf:RDF>
  </metadata>
  <defs
     id="defs8" />
  <sodipodi:namedview
     pagecolor="#ffffff"
     bordercolor="#666666"
     borderopacity="1"
     objecttolerance="10"
     gridtolerance="10"
     guidetolerance="10"
     inkscape:pageopacity="0"
     inkscape:pageshadow="2"
     inkscape:window-width="640"
     inkscape:window-height="480"
     id="namedview6" />
  <path
     style="fill:#cc7d6f"
     d="M 18.054688 2.382812 C 17.792969 2.40625 17.535156 2.535156 17.324219 2.738281 L 12.640625 6.8125 C 12.4375 7.007812 12.328125 7.28125 12.328125 7.558594 C 12.328125 7.695312 12.355469 7.816406 12.40625 7.933594 C 12.40625 7.941406 12.402344 7.949219 12.40625 7.953125 C 12.230469 8.324219 12.285156 8.84375 12.285156 9.960938 C 12.285156 10.371094 11.214844 10.808594 10.949219 10.808594 C 10.933594 10.808594 10.921875 10.808594 10.90625 10.808594 C 10.058594 10.808594 7.292969 10.933594 6.441406 12.105469 C 5.589844 13.28125 2.386719 18.609375 2.386719 19.390625 C 3.664062 19.390625 12.949219 14.75 13.429688 14.3125 C 14.003906 13.785156 13.722656 12.71875 13.347656 12.007812 C 13.351562 12.007812 13.347656 11.992188 13.347656 11.988281 C 13.359375 11.964844 13.363281 11.925781 13.328125 11.871094 C 13.128906 11.535156 13.015625 11.199219 13.015625 10.730469 C 13.015625 9.6875 13.125 9.109375 13.347656 8.78125 C 13.851562 8.867188 14.582031 8.621094 14.90625 8.308594 L 19.019531 4.390625 C 19.4375 3.988281 19.535156 3.378906 19.117188 2.972656 L 18.78125 2.640625 C 18.574219 2.4375 18.3125 2.363281 18.054688 2.386719 Z "
     id="path4" />
</svg>

<svg xmlns="http://www.w3.org/2000/svg" viewBox="0 0 22 22">
 <path d="m 18.05 2.383 c -0.262 0.023 -0.52 0.152 -0.73 0.355 l -4.684 4.074 c -0.203 0.195 -0.313 0.469 -0.313 0.746 c 0 0.137 0.027 0.258 0.078 0.375 c 0 0.008 -0.004 0.016 0 0.02 c -0.176 0.371 -0.121 0.891 -0.121 2.01 c 0 0.41 -1.07 0.848 -1.336 0.848 c -0.016 0 -0.027 0 -0.043 0 c -0.848 0 -3.613 0.125 -4.465 1.297 c -0.852 1.176 -4.055 6.504 -4.055 7.285 c 1.277 0 10.563 -4.641 11.04 -5.078 c 0.574 -0.527 0.293 -1.594 -0.082 -2.305 c 0.004 0 0 -0.016 0 -0.02 c 0.012 -0.023 0.016 -0.063 -0.02 -0.117 c -0.199 -0.336 -0.313 -0.672 -0.313 -1.141 c 0 -1.043 0.109 -1.621 0.332 -1.949 c 0.504 0.086 1.234 -0.16 1.559 -0.473 l 4.113 -3.918 c 0.418 -0.402 0.516 -1.012 0.098 -1.418 l -0.336 -0.332 c -0.207 -0.203 -0.469 -0.277 -0.727 -0.254 Z" style="fill:#cc7d6f"/>
</svg>
